X: 17158
T: Hen Ferchetan
R: reel
M: 4/4
K: Ddorian
|:d2 d2 A2 c2|{Bc}B2 AG A2 A2|DEFG A2 A2|AGFE D2 A2:|
d3 e f2 df|ed c2 d2 A2|dcde f2 df|ed c2 d2 A2|
d2 d2 A2 c2|{Bc}B2 AG A2 A2|DEFG A2 A2|AGFE D4||

